dist/assets/img/logos/logo-umnikey.svg

<svg width="143" height="30" viewBox="0 0 143 30" fill="none" xmlns="http://www.w3.org/2000/svg">
<g clip-path="url(#clip0_1632_194)">
<path d="M43.7113 4.125V18.8325C43.7113 20.5875 44.1488 22.665 46.5177 22.665C48.8866 22.665 49.3015 20.91 49.3015 18.855V4.125H53.1566V18.915C53.1566 22.755 51.6477 25.875 46.4573 25.875C41.2669 25.875 39.8486 22.9425 39.8486 18.915V4.125H43.7113Z" fill="white"/>
<path d="M69.6031 17.55C69.6031 13.905 69.6634 9.735 69.7238 7.305H69.6408C68.8864 11.37 67.7019 18.555 66.2987 25.5H62.8209C61.7798 19.0575 60.5576 11.385 59.856 7.245H59.7353C59.8635 9.7425 59.9541 14.2275 59.9541 17.9175V25.5H56.4385V4.125H62.1871C63.3188 10.035 64.2995 16.005 64.7371 19.125C65.1746 16.2225 66.5175 9.78 67.6416 4.125H73.262V25.5H69.6031V17.55Z" fill="white"/>
<path d="M76.6865 25.5V4.125H81.0621C85.5057 15.9375 86.3431 18.195 86.6222 19.2375C86.4412 16.6725 86.4336 13.5225 86.4336 10.02V4.125H89.8738V25.5H85.6792C81.0848 12.9075 80.27 10.635 79.9909 9.6525C80.1493 12.2925 80.1568 15.435 80.1568 19.2675V25.5H76.6865Z" fill="white"/>
<path d="M97.1695 4.125V25.5H93.3145V4.125H97.1695Z" fill="white"/>
<path d="M100.654 4.125H104.426V13.71C105.618 11.76 108.395 6.9 110.145 4.125H114.581L109.036 12.48L114.671 25.5H110.386L106.373 15.675L104.441 18.3825V25.5H100.669L100.654 4.125Z" fill="white"/>
<path d="M126.516 15.9975H119.613V22.2075H127.361L126.885 25.5H115.811V4.125H126.84V7.5H119.613V12.675H126.516V15.9975Z" fill="white"/>
<path d="M133.532 25.5V17.94C133.539 17.6988 133.488 17.4596 133.382 17.2425L127.965 4.125H132.265C133.472 7.4775 134.943 11.625 135.577 13.9425C136.331 11.3175 137.84 7.3125 138.934 4.125H143L137.516 17.295C137.423 17.5339 137.382 17.7894 137.395 18.045V25.5H133.532Z" fill="white"/>
<path d="M34.2584 13.3948V7.0123C34.2502 6.61002 34.1841 6.21097 34.0622 5.8273C33.9264 5.37038 33.6234 4.98061 33.2128 4.73487C32.8022 4.48913 32.3139 4.40526 31.8442 4.4998C31.4022 4.52368 30.9831 4.70256 30.6612 5.00466C30.3394 5.30676 30.1357 5.71251 30.0864 6.1498C30.0055 6.61268 29.9777 7.08319 30.0034 7.5523C30.0034 11.4223 30.0034 15.2923 30.0034 19.1623C29.9431 23.6623 25.8541 26.7523 21.6596 25.4473C20.4038 25.0423 19.3001 24.2702 18.4926 23.232C17.6851 22.1937 17.2113 20.9374 17.1331 19.6273C17.0576 16.9123 17.1331 14.1973 17.1331 11.4823C17.1331 9.4198 16.439 8.6998 14.4021 8.6923C10.4791 8.6923 6.54856 8.6923 2.61804 8.6923C1.9575 8.69714 1.31169 8.88689 0.754631 9.2398C0.406251 9.48637 0.15335 9.84414 0.0380435 10.2535C-0.0772625 10.6629 -0.0480134 11.0992 0.12092 11.4898C0.226257 11.8992 0.46761 12.2612 0.805842 12.5171C1.14407 12.7731 1.55935 12.9079 1.98433 12.8998C4.60216 12.9523 7.22 12.9373 9.83783 12.9898C13.1724 13.0573 12.7499 12.5173 12.7951 15.9898C12.8329 18.4048 12.6669 20.8423 13.5496 23.1748C14.344 25.2493 15.7707 27.0251 17.63 28.2541C19.4894 29.4831 21.6886 30.1038 23.9201 30.0294C26.1517 29.9551 28.3041 29.1894 30.0765 27.8394C31.849 26.4894 33.1528 24.6225 33.8057 22.4998C34.0606 21.5932 34.2 20.6584 34.2206 19.7173C34.281 17.6248 34.2206 15.5248 34.2206 13.4248L34.2584 13.3948Z" fill="#407BFF"/>
<path d="M4.88086 14.6621C4.88086 15.5696 4.88086 16.4696 4.88086 17.3771C4.88086 18.8771 5.77107 19.8146 7.07622 19.8146C8.38136 19.8146 9.26403 18.8921 9.28666 17.3696C9.28666 16.4696 9.28666 15.5696 9.28666 14.6621H4.88086Z" fill="#2C6BC6"/>
<path d="M25.5521 9.42749V9.23249C24.7072 1.36499 15.5862 -2.60251 8.95491 1.88249C7.108 3.0878 5.70069 4.85242 4.94141 6.91499H10.0036C10.1544 6.78749 10.3129 6.61499 10.4562 6.47999C11.3088 5.57376 12.4196 4.94807 13.6398 4.6867C14.8599 4.42533 16.1313 4.54074 17.2837 5.01749C18.4368 5.40518 19.4385 6.14276 20.1477 7.12632C20.8569 8.10987 21.2378 9.28984 21.2368 10.5C21.3349 12.9225 21.2368 15.3525 21.3047 17.7825C21.3047 18.27 21.3047 18.75 21.3047 19.2375C21.35 20.7375 22.195 21.6825 23.5076 21.675C23.9042 21.6818 24.2947 21.5778 24.6347 21.375C24.9748 21.1721 25.2508 20.8785 25.4314 20.5275C25.6244 20.1194 25.7224 19.6734 25.7181 19.2225C25.7181 18.5625 25.7181 17.9025 25.7181 17.2425V16.5C25.7865 14.1412 25.7311 11.7805 25.5521 9.42749Z" fill="#2C6BC6"/>
</g>
<defs>
<clipPath id="clip0_1632_194">
<rect width="143" height="30" fill="white"/>
</clipPath>
</defs>
</svg>

<svg width="143" height="30" fill="none" xmlns="http://www.w3.org/2000/svg"><g clip-path="url(#a)"><path d="M43.711 4.125v14.707c0 1.755.438 3.833 2.807 3.833 2.369 0 2.783-1.755 2.783-3.81V4.125h3.856v14.79c0 3.84-1.51 6.96-6.7 6.96s-6.608-2.933-6.608-6.96V4.125h3.862ZM69.603 17.55c0-3.645.06-7.815.12-10.245h-.082c-.755 4.065-1.94 11.25-3.342 18.195H62.82c-1.041-6.442-2.263-14.115-2.965-18.255h-.12c.128 2.497.218 6.982.218 10.672V25.5h-3.516V4.125h5.75c1.13 5.91 2.111 11.88 2.55 15 .437-2.902 1.78-9.345 2.904-15h5.62V25.5h-3.659v-7.95Zm7.083 7.95V4.125h4.376c4.444 11.813 5.281 14.07 5.56 15.113-.18-2.566-.188-5.715-.188-9.218V4.125h3.44V25.5h-4.195c-4.594-12.592-5.409-14.865-5.688-15.848.158 2.64.166 5.783.166 9.615V25.5h-3.47ZM97.17 4.125V25.5h-3.856V4.125h3.856Zm3.484 0h3.772v9.585c1.192-1.95 3.969-6.81 5.719-9.585h4.436l-5.545 8.355 5.635 13.02h-4.285l-4.013-9.825-1.932 2.707V25.5h-3.772l-.015-21.375Zm25.862 11.873h-6.903v6.21h7.748l-.476 3.292h-11.074V4.125h11.029V7.5h-7.227v5.175h6.903v3.322Zm7.016 9.502v-7.56a1.49 1.49 0 0 0-.15-.698l-5.417-13.117h4.3c1.207 3.353 2.678 7.5 3.312 9.818.754-2.625 2.263-6.63 3.357-9.818H143l-5.484 13.17a1.813 1.813 0 0 0-.121.75V25.5h-3.863Z" fill="#fff"/><path d="M34.258 13.395V7.012a4.196 4.196 0 0 0-.196-1.185 1.907 1.907 0 0 0-.85-1.092 1.926 1.926 0 0 0-1.368-.235 1.877 1.877 0 0 0-1.183.505 1.856 1.856 0 0 0-.575 1.145c-.08.463-.108.933-.083 1.402v11.61c-.06 4.5-4.149 7.59-8.343 6.285a6.563 6.563 0 0 1-3.167-2.215 6.503 6.503 0 0 1-1.36-3.605c-.075-2.715 0-5.43 0-8.145 0-2.062-.694-2.782-2.73-2.79H2.617a3.53 3.53 0 0 0-1.863.548 1.85 1.85 0 0 0-.634 2.25c.105.41.347.771.685 1.027.338.256.753.39 1.178.383 2.618.052 5.236.037 7.854.09 3.334.067 2.912-.473 2.957 3 .038 2.415-.128 4.852.755 7.185a10.661 10.661 0 0 0 4.08 5.08 10.759 10.759 0 0 0 12.447-.416 10.65 10.65 0 0 0 3.729-5.34c.255-.906.394-1.84.415-2.782.06-2.092 0-4.192 0-6.292l.037-.03Z" fill="#407BFF"/><path d="M4.88 14.662v2.715c0 1.5.891 2.438 2.196 2.438 1.305 0 2.188-.923 2.21-2.445v-2.708H4.882Zm20.672-5.235v-.195c-.845-7.867-9.966-11.835-16.597-7.35A10.233 10.233 0 0 0 4.94 6.915h5.063c.15-.128.309-.3.452-.435a6.135 6.135 0 0 1 3.184-1.793 6.16 6.16 0 0 1 3.644.33 5.814 5.814 0 0 1 2.864 2.11 5.76 5.76 0 0 1 1.089 3.373c.098 2.422 0 4.852.068 7.282v1.456c.045 1.5.89 2.445 2.203 2.437a2.13 2.13 0 0 0 1.923-1.148 2.99 2.99 0 0 0 .287-1.305V16.5a67.46 67.46 0 0 0-.166-7.073Z" fill="#2C6BC6"/></g><defs><clipPath id="a"><path fill="#fff" d="M0 0h143v30H0z"/></clipPath></defs></svg>
